src/assets/icons/language.svg

<?xml version="1.0" standalone="no"?><!DOCTYPE svg PUBLIC "-//W3C//DTD SVG 1.1//EN" "http://www.w3.org/Graphics/SVG/1.1/DTD/svg11.dtd"><svg t="1634009503308" class="icon" viewBox="0 0 1024 1024" version="1.1" xmlns="http://www.w3.org/2000/svg" p-id="3596" xmlns:xlink="http://www.w3.org/1999/xlink" width="96" height="96"><defs><style type="text/css"></style></defs><path d="M848.805886 805.572222c70.998007-81.260745 109.779266-184.217628 109.779266-293.14448 0-119.204939-46.421262-231.277434-130.713041-315.569212C744.876861 113.862257 634.94103 67.61598 517.788843 66.213028c-1.924839-0.599657-10.290367-0.592494-12.227486 0.01535C388.878868 67.945485 279.434224 114.159016 196.73471 196.85853 113.863281 279.730982 67.630307 389.460106 66.095347 506.415818c-0.428765 1.64957-0.436952 8.601912-0.021489 10.226922 1.082658 117.628024 47.364751 228.058113 130.660852 311.354214 84.291778 84.291778 196.36325 130.713041 315.569212 130.713041 119.204939 0 231.277434-46.421262 315.569212-130.713041 6.139837-6.139837 12.054547-12.444427 17.789155-18.871813 0.50756-0.453325 1.001817-0.928139 1.471514-1.440815C847.750857 807.012014 848.295256 806.299793 848.805886 805.572222zM107.447151 532.043499l187.501418 0c1.322112 65.678862 9.253758 127.264499 22.505573 182.112688-61.690014 16.687054-100.819197 38.371936-121.076566 51.906184C144.30971 701.336206 111.676475 620.35687 107.447151 532.043499zM195.881272 259.408121c20.090571 13.556761 59.242266 35.461653 121.340579 52.260248-12.998035 54.127781-20.827351 114.778116-22.243607 179.432649L107.525945 491.101018C112.076588 403.731134 144.437623 323.612399 195.881272 259.408121zM917.081898 491.099994 729.628576 491.099994c-1.415232-64.630996-9.240455-125.260865-22.229281-179.37432 61.95505-16.693194 101.235682-38.444591 121.56673-52.020794C880.270505 323.860039 912.537396 403.866211 917.081898 491.099994zM688.677908 491.099994 532.167319 491.099994 532.167319 335.061149c52.209082-1.094938 97.103572-6.453992 135.272893-14.033621C680.000272 373.163955 687.286212 430.896844 688.677908 491.099994zM532.167319 294.115598 532.167319 109.918435c36.84107 10.398838 72.779583 49.205679 100.926644 110.015649 8.810666 19.035542 16.645099 39.641859 23.464411 61.521169C621.531626 288.227494 580.261687 293.062616 532.167319 294.115598zM491.223814 110.273523l0 183.805236c-47.504944-1.12666-88.378863-6.001691-123.120109-12.802584 6.807033-21.812795 14.623046-42.35976 23.409153-61.344137C419.351903 159.792333 454.809463 121.175827 491.223814 110.273523zM491.223814 335.040682l0 156.059312L335.928912 491.099994c1.391696-60.213383 8.679683-117.955482 21.243837-170.099073C395.008472 328.536548 439.487499 333.887416 491.223814 335.040682zM335.893096 532.043499l155.330718 0 0 158.667719c-51.609425 1.194198-96.019891 6.563486-133.821845 14.103206C344.576873 651.927913 337.193719 593.243349 335.893096 532.043499zM491.223814 731.672118l0 182.909843c-36.415374-10.902304-71.871911-49.51881-99.709933-109.659539-8.679683-18.752086-16.409738-39.034015-23.157419-60.551074C402.9964 737.645157 443.773106 732.820268 491.223814 731.672118zM532.167319 914.937049 532.167319 731.608673c47.904033 1.025353 89.103364 5.862521 124.116809 12.656251-6.755868 21.555945-14.497179 41.87369-23.190165 60.656475C604.946902 865.73137 569.008388 904.538211 532.167319 914.937049zM532.167319 690.660052 532.167319 532.043499l156.546406 0c-1.298576 61.096497-8.66024 119.68487-21.445428 172.502819C629.154233 697.013761 584.319096 691.710988 532.167319 690.660052zM729.659275 532.043499l187.501418 0c-4.221138 88.138386-36.732599 168.973436-88.620363 233.635131-20.469194-13.668301-59.635215-35.298947-121.30374-51.868321C720.43724 659.049101 728.33921 597.585237 729.659275 532.043499zM801.518906 228.742704c-18.329461 11.570523-52.309366 29.355585-104.858186 43.493583-19.295462-63.056128-46.110177-115.004267-78.06189-150.97655C689.00025 140.410913 751.833297 178.097234 801.518906 228.742704zM406.007991 121.259738c-31.905664 35.920094-58.690704 87.768973-77.979002 150.702304-52.40351-14.241352-86.370113-32.099069-104.581893-43.587728C273.076422 177.914062 335.777463 140.364865 406.007991 121.259738zM223.917816 796.963147c18.284435-11.535731 52.098565-29.230742 104.332207-43.335994 19.271926 62.60485 45.976124 114.186645 77.757968 149.968593C335.99952 884.550994 273.472442 847.181899 223.917816 796.963147zM618.59883 903.595746c31.801287-35.803437 58.517765-87.426165 77.792761-150.08218 51.984978 14.023388 85.972047 31.631418 104.533798 43.208081C751.3329 847.061149 688.718841 884.521319 618.59883 903.595746z" p-id="3597"></path></svg>

<svg class="icon" viewBox="0 0 1024 1024" xmlns="http://www.w3.org/2000/svg" width="96" height="96"><path d="M848.806 805.572c70.998-81.26 109.78-184.217 109.78-293.144 0-119.205-46.422-231.278-130.714-315.57C744.877 113.863 634.941 67.617 517.79 66.214c-1.925-.6-10.29-.592-12.228.015-116.682 1.717-226.127 47.931-308.826 130.63C113.863 279.732 67.63 389.46 66.095 506.417c-.428 1.65-.437 8.602-.021 10.227 1.083 117.628 47.365 228.058 130.66 311.354 84.292 84.292 196.364 130.713 315.57 130.713 119.205 0 231.277-46.421 315.57-130.713 6.139-6.14 12.054-12.444 17.788-18.872a20.532 20.532 0 001.472-1.44 20.566 20.566 0 001.672-2.113zM107.447 532.043H294.95c1.322 65.68 9.253 127.265 22.505 182.113-61.69 16.687-100.82 38.372-121.076 51.906-52.068-64.726-84.702-145.705-88.93-234.019zm88.434-272.635c20.09 13.557 59.243 35.462 121.34 52.26-12.997 54.128-20.826 114.778-22.243 179.433H107.526c4.55-87.37 36.912-167.489 88.355-231.693zm721.2 231.692H729.63c-1.416-64.631-9.24-125.26-22.23-179.374 61.955-16.694 101.236-38.445 121.567-52.021 51.305 64.155 83.571 144.161 88.116 231.395zm-228.403 0h-156.51V335.061c52.208-1.095 97.103-6.454 135.272-14.033C680 373.164 687.286 430.897 688.678 491.1zm-156.51-196.984V109.918c36.84 10.4 72.779 49.206 100.926 110.016 8.81 19.036 16.645 39.642 23.464 61.521-35.026 6.772-76.296 11.608-124.39 12.66zm-40.944-183.842v183.805c-47.505-1.127-88.379-6.002-123.12-12.803 6.807-21.813 14.623-42.36 23.409-61.344 27.839-60.14 63.296-98.756 99.71-109.658zm0 224.767V491.1H335.929c1.392-60.213 8.68-117.955 21.244-170.1 37.835 7.537 82.314 12.887 134.05 14.04zm-155.33 197.002h155.33v158.668c-51.61 1.194-96.02 6.564-133.822 14.103-12.825-52.886-20.208-111.57-21.509-172.77zm155.33 199.63v182.909c-36.416-10.902-71.872-49.519-99.71-109.66-8.68-18.752-16.41-39.034-23.158-60.55 34.64-6.727 75.417-11.552 122.868-12.7zm40.943 183.264V731.609c47.904 1.025 89.104 5.862 124.117 12.656-6.756 21.556-14.497 41.874-23.19 60.656-28.147 60.81-64.086 99.617-100.927 110.016zm0-224.277V532.043h156.547c-1.299 61.097-8.66 119.685-21.446 172.503-38.114-7.532-82.949-12.835-135.1-13.886zM729.66 532.043h187.502c-4.221 88.139-36.733 168.974-88.62 233.636-20.47-13.669-59.636-35.3-121.304-51.869 13.2-54.76 21.102-116.225 22.422-181.767zm71.86-303.3c-18.33 11.57-52.31 29.355-104.858 43.493-19.296-63.056-46.11-115.004-78.062-150.976 70.401 19.15 133.234 56.837 182.92 107.483zM406.008 121.26c-31.906 35.92-58.69 87.769-77.979 150.702-52.404-14.241-86.37-32.099-104.582-43.588 49.63-50.46 112.33-88.01 182.561-107.114zm-182.09 675.703c18.284-11.536 52.098-29.23 104.332-43.336 19.272 62.605 45.976 114.187 77.758 149.969C336 884.55 273.472 847.182 223.918 796.963zm394.68 106.633c31.802-35.804 58.519-87.426 77.794-150.082 51.985 14.023 85.972 31.631 104.533 43.208-49.592 50.34-112.206 87.8-182.326 106.874z"/></svg>
